svgs/scany.svg

﻿<?xml version="1.0" encoding="utf-8"?>
<svg version="1.1" viewBox="0 0 192 192" width="192" height="192" style="stroke:none;stroke-linecap:butt;stroke-linejoin:miter;stroke-width:1;stroke-dasharray:none;fill:#000000;fill-opacity:1;fill-rule:evenodd" font-family="Arial" font-size="15px" xmlns:xlink="http://www.w3.org/1999/xlink" xmlns="http://www.w3.org/2000/svg">
  <path id="Union" d="M150,150.25L150,164.5L164.5,164.5L164.5,150.25L150,150.25zM134.75,150.25L134.75,164.5L149,164.5L149,150.25L134.75,150.25zM58.25,150.25L58.25,164.5L133.75,164.5L133.75,150.25L58.25,150.25zM42.75,150.25L42.75,164.5L57.25,164.5L57.25,150.25L42.75,150.25zM27.5,150.25L27.5,164.5L41.75,164.5L41.75,150.25L27.5,150.25zM150,134.75L150,149.25L164.5,149.25L164.5,134.75L150,134.75zM134.75,134.75L134.75,149.25L149,149.25L149,134.75L134.75,134.75zM58.25,134.75L58.25,149.25L133.75,149.25L133.75,134.75L58.25,134.75zM42.75,134.75L42.75,149.25L57.25,149.25L57.25,134.75L42.75,134.75zM27.5,134.75L27.5,149.25L41.75,149.25L41.75,134.75L27.5,134.75zM150,58.25L150,133.75L164.5,133.75L164.5,58.25L150,58.25zM134.75,58.25L134.75,133.75L149,133.75L149,58.25L134.75,58.25zM58.25,58.25L58.25,133.75L133.75,133.75L133.75,58.25L58.25,58.25zM42.75,58.25L42.75,133.75L57.25,133.75L57.25,58.25L42.75,58.25zM27.5,58.25L27.5,133.75L41.75,133.75L41.75,58.25L27.5,58.25zM150,43L150,57.25L164.5,57.25L164.5,43L150,43zM134.75,43L134.75,57.25L149,57.25L149,43L134.75,43zM58.25,43L58.25,57.25L133.75,57.25L133.75,43L58.25,43zM42.75,43L42.75,57.25L57.25,57.25L57.25,43L42.75,43zM27.5,43L27.5,57.25L41.75,57.25L41.75,43L27.5,43zM150,27.5L150,42L164.5,42L164.5,27.5L150,27.5zM134.75,27.5L134.75,42L149,42L149,27.5L134.75,27.5zM58.25,27.5L58.25,42L133.75,42L133.75,27.5L58.25,27.5zM42.75,27.5L42.75,42L57.25,42L57.25,27.5L42.75,27.5zM27.5,27.5L27.5,42L41.75,42L41.75,27.5L27.5,27.5zM26.5,0L27.5,0L27.5,26.5L41.75,26.5L41.75,0L42.75,0L42.75,26.5L57.25,26.5L57.25,0L58.25,0L58.25,26.5L133.75,26.5L133.75,0L134.75,0L134.75,26.5L149,26.5L149,0L150,0L150,26.5L164.5,26.5L164.5,0L165.5,0L165.5,26.5L192,26.5L192,27.5L165.5,27.5L165.5,42L192,42L192,43L165.5,43L165.5,57.25L192,57.25L192,58.25L165.5,58.25L165.5,133.75L192,133.75L192,134.75L165.5,134.75L165.5,149.25L192,149.25L192,150.25L165.5,150.25L165.5,164.5L192,164.5L192,165.5L165.5,165.5L165.5,192L164.5,192L164.5,165.5L150,165.5L150,192L149,192L149,165.5L134.75,165.5L134.75,192L133.75,192L133.75,165.5L58.25,165.5L58.25,192L57.25,192L57.25,165.5L42.75,165.5L42.75,192L41.75,192L41.75,165.5L27.5,165.5L27.5,192L26.5,192L26.5,165.5L0,165.5C0,165.1667 0,164.8333 0,164.5L26.5,164.5L26.5,150.25L0,150.25C0,149.9167 0,149.5833 0,149.25L26.5,149.25L26.5,134.75L0,134.75C0,134.4167 0,134.0833 0,133.75L26.5,133.75L26.5,58.25L0,58.25C0,57.9167 0,57.5833 0,57.25L26.5,57.25L26.5,43L0,43C0,42.6667 0,42.3333 0,42L26.5,42L26.5,27.5L0,27.5C0,27.1667 0,26.8333 0,26.5L26.5,26.5L26.5,0z" style="stroke:#000000;" />
  <path id="path_13" d="M104.3333,76.5556L104.3333,87.6667L115.4444,87.6667L115.4444,76.5556C115.4444,76.5556 104.3333,76.5556 104.3333,76.5556z" style="stroke-width:2.381;fill:none;fill-opacity:0;" />
  <path id="path_14" d="M76.5556,76.5556L76.5556,87.6667L87.6667,87.6667L87.6667,76.5556C87.6667,76.5556 76.5556,76.5556 76.5556,76.5556z" style="stroke-width:2.381;fill:none;fill-opacity:0;" />
  <path id="path_15" d="M76.5556,104.3333L76.5556,115.4444L87.6667,115.4444L87.6667,104.3333C87.6667,104.3333 76.5556,104.3333 76.5556,104.3333z" style="stroke-width:2.381;fill:none;fill-opacity:0;" />
  <path id="path_16" d="M93.2222,71L93.2222,93.2222L71,93.2222L71,71C78.4074,71 85.8148,71 93.2222,71zM76.5556,76.5556L76.5556,87.6667L87.6667,87.6667L87.6667,76.5556C83.963,76.5556 80.2593,76.5556 76.5556,76.5556z" style="stroke-width:2.381;" />
  <path id="path_17" d="M121,71L121,93.2222L98.7778,93.2222L98.7778,71C106.1852,71 113.5926,71 121,71zM104.3333,76.5556L104.3333,87.6667L115.4444,87.6667L115.4444,76.5556C111.7407,76.5556 108.037,76.5556 104.3333,76.5556z" style="stroke-width:2.381;" />
  <path id="path_18" d="M71,98.7778L93.2222,98.7778L93.2222,121L71,121C71,113.5926 71,106.1852 71,98.7778zM87.6667,115.4444L87.6667,104.3333L76.5556,104.3333L76.5556,115.4444C80.2593,115.4444 83.963,115.4444 87.6667,115.4444z" style="stroke-width:2.381;" />
  <path id="path_19" d="M115.4444,115.4444L115.4444,121L121,121L121,115.4444C121,115.4444 115.4444,115.4444 115.4444,115.4444z" style="stroke-width:2.381;" />
  <path id="path_20" d="M98.7778,98.7778L98.7778,104.3333L104.3333,104.3333L104.3333,98.7778C104.3333,98.7778 98.7778,98.7778 98.7778,98.7778z" style="stroke-width:2.381;" />
  <path id="path_21" d="M104.3333,104.3333L104.3333,109.8889L109.8889,109.8889L109.8889,104.3333C109.8889,104.3333 104.3333,104.3333 104.3333,104.3333z" style="stroke-width:2.381;" />
  <path id="path_22" d="M109.8889,98.7778L109.8889,104.3333L115.4444,104.3333L115.4444,98.7778C115.4444,98.7778 109.8889,98.7778 109.8889,98.7778z" style="stroke-width:2.381;" />
  <path id="path_23" d="M115.4444,104.3333L115.4444,109.8889L121,109.8889L121,104.3333C121,104.3333 115.4444,104.3333 115.4444,104.3333z" style="stroke-width:2.381;" />
  <path id="path_24" d="M109.8889,109.8889L109.8889,115.4444L115.4444,115.4444L115.4444,109.8889C115.4444,109.8889 109.8889,109.8889 109.8889,109.8889z" style="stroke-width:2.381;" />
  <path id="path_25" d="M98.7778,109.8889L98.7778,115.4444L104.3333,115.4444L104.3333,109.8889C104.3333,109.8889 98.7778,109.8889 98.7778,109.8889z" style="stroke-width:2.381;" />
  <path id="path_26" d="M104.3333,115.4444L104.3333,121L109.8889,121L109.8889,115.4444C109.8889,115.4444 104.3333,115.4444 104.3333,115.4444z" style="stroke-width:2.381;" />
</svg>

<svg xmlns="http://www.w3.org/2000/svg" width="192" height="192" font-family="Arial" font-size="15" style="stroke:none;stroke-linecap:butt;stroke-linejoin:miter;stroke-width:1;stroke-dasharray:none;fill:#000;fill-opacity:1;fill-rule:evenodd" viewBox="0 0 192 192"><path d="M150 150.25v14.25h14.5v-14.25zm-15.25 0v14.25H149v-14.25zm-76.5 0v14.25h75.5v-14.25zm-15.5 0v14.25h14.5v-14.25zm-15.25 0v14.25h14.25v-14.25zm122.5-15.5v14.5h14.5v-14.5zm-15.25 0v14.5H149v-14.5zm-76.5 0v14.5h75.5v-14.5zm-15.5 0v14.5h14.5v-14.5zm-15.25 0v14.5h14.25v-14.5zM150 58.25v75.5h14.5v-75.5zm-15.25 0v75.5H149v-75.5zm-76.5 0v75.5h75.5v-75.5zm-15.5 0v75.5h14.5v-75.5zm-15.25 0v75.5h14.25v-75.5zM150 43v14.25h14.5V43zm-15.25 0v14.25H149V43zm-76.5 0v14.25h75.5V43zm-15.5 0v14.25h14.5V43zM27.5 43v14.25h14.25V43zM150 27.5V42h14.5V27.5zm-15.25 0V42H149V27.5zm-76.5 0V42h75.5V27.5zm-15.5 0V42h14.5V27.5zm-15.25 0V42h14.25V27.5zM26.5 0h1v26.5h14.25V0h1v26.5h14.5V0h1v26.5h75.5V0h1v26.5H149V0h1v26.5h14.5V0h1v26.5H192v1h-26.5V42H192v1h-26.5v14.25H192v1h-26.5v75.5H192v1h-26.5v14.5H192v1h-26.5v14.25H192v1h-26.5V192h-1v-26.5H150V192h-1v-26.5h-14.25V192h-1v-26.5h-75.5V192h-1v-26.5h-14.5V192h-1v-26.5H27.5V192h-1v-26.5H0v-1h26.5v-14.25H0v-1h26.5v-14.5H0v-1h26.5v-75.5H0v-1h26.5V43H0v-1h26.5V27.5H0v-1h26.5z" style="stroke:#000"/><path d="M104.333 76.556v11.11h11.111v-11.11h-11.11m-27.778 0v11.11h11.11v-11.11zm0 27.777v11.111h11.11v-11.11h-11.11" style="stroke-width:2.381;fill:none;fill-opacity:0"/><path d="M93.222 71v22.222H71V71h22.222m-16.666 5.556v11.11h11.11v-11.11h-11.11M121 71v22.222H98.778V71zm-16.667 5.556v11.11h11.111v-11.11h-11.11M71 98.778h22.222V121H71zm16.667 16.666v-11.11H76.556v11.11h11.11m27.778 0V121H121v-5.556zM98.778 98.778v5.555h5.555v-5.555h-5.555m5.555 5.555v5.556h5.556v-5.556zm5.556-5.555v5.555h5.555v-5.555h-5.555m5.555 5.555v5.556H121v-5.556z" style="stroke-width:2.381"/><path d="M109.889 109.889v5.555h5.555v-5.555h-5.555m-11.111 0v5.555h5.555v-5.555h-5.555m5.555 5.555V121h5.556v-5.556z" style="stroke-width:2.381"/></svg>
